X: 2
T: Reel Des Voyageurs
Z: CreadurMawnOrganig
S: https://thesession.org/tunes/14650#setting27041
R: reel
M: 4/4
L: 1/8
K: Amaj
A2cA eAcA | EAce dAcA | EAce fefg |1 a2ed ceBB :|2 a2ed cefg ||
agae agae | f2ed cefg |1 a2g2 f2ed | f2de cefg :|2 a2c2 f2ed|\
M:3/2
f2ed c2B4A2 ||
